X:13013
T:Pericote
R:Danza
C:Tradicional
S:Música Tradicional Asturiana, (C) Tello & Tito. Asturies, 2001.
S:http://pagina.de/MusTradAst <telloytito@asturies.org>
N:El Pericote ye la seña d'identidá del folclor Llaniscu.
N:La estructura del baille ye una tríada de dos muyeres y un home.
N:N'otra dómina podíen intervenir una o delles tríades según les qu'hubiesen nel momentu.
N:Cantábenlu delles muyeres que s'acompañaben de panderetes y tambor.
N:Güei, el Pericote báillenlu siempres delles tríades al son de la gaita y el tambor.
N:Tantu pol ritmu, comu pol so calter, el Pericote ta emparentáu col Corri-Corri de Cabrales.
O:Llanes
A:Asturies
Z:Les cuarenta principales
M:2/4
L:1/8
Q:1/4=84
K:C
CE
|G>G GF|GG AG|E>G FD|CC EG|
|G>F ED|EE GF|D>F ED|C2 C2-|C4-|C2


